synths/sKRW.svg

<svg width="480" height="480" viewBox="0 0 480 480" fill="none" xmlns="http://www.w3.org/2000/svg"><mask id="mask0-187299" maskUnits="userSpaceOnUse" x="0" y="0" width="480" height="480"><circle cx="240" cy="240" r="240" fill="url(#paint0_linear-514920)"/></mask><g mask="url(#mask0-187299)"><circle cx="240" cy="240" r="240" fill="#31D8A4"/><circle cx="240" cy="240" r="208" fill="#fff"/></g><circle cx="240" cy="240" r="184" fill="#0E052F"/><path d="M333.72 244.84h-25.2l-9.36 78.96h-35.52l-11.76-78.96h-20.64l-12.96 78.96h-36.24l-9.6-78.96H147v-21.6h22.8L161.88 157h28.56l5.52 66.24h19.68l11.04-64.56h31.92l10.32 64.56h18.72L293.4 157h25.44l-7.92 66.24h22.8v21.6zm-84.96-21.6l-6.72-44.88-7.44 44.88h14.16zm-36.72 21.6h-14.16l4.8 55.92 9.36-55.92zm73.68 0h-13.44l8.64 55.44 4.8-55.44z" fill="#fff"/><defs><linearGradient id="paint0_linear-514920" x1="240" y1="0" x2="240" y2="701.818" gradientUnits="userSpaceOnUse"><stop stop-color="#08021E"/><stop offset="1" stop-color="#1F0777"/></linearGradient></defs></svg>

<svg width="480" height="480" viewBox="0 0 480 480" fill="none" xmlns="http://www.w3.org/2000/svg">
<mask id="mask0-187299" mask-type="alpha" maskUnits="userSpaceOnUse" x="0" y="0" width="480" height="480">
<circle cx="240" cy="240" r="240" fill="url(#paint0_linear-514920)"/>
</mask>
<g mask="url(#mask0-187299)">
<circle cx="240" cy="240" r="240" fill="#31D8A4"/>
<circle cx="240" cy="240" r="208" fill="white"/>
</g>
<circle cx="240" cy="240" r="184" fill="#0E052F"/>
<path d="M333.72 244.84H308.52L299.16 323.8H263.64L251.88 244.84H231.24L218.28 323.8H182.04L172.44 244.84H147V223.24H169.8L161.88 157H190.44L195.96 223.24H215.64L226.68 158.68H258.6L268.92 223.24H287.64L293.4 157H318.84L310.92 223.24H333.72V244.84ZM248.76 223.24L242.04 178.36L234.6 223.24H248.76ZM212.04 244.84H197.88L202.68 300.76L212.04 244.84ZM285.72 244.84H272.28L280.92 300.28L285.72 244.84Z" fill="white"/>
<defs>
<linearGradient id="paint0_linear-514920" x1="240" y1="0" x2="240" y2="701.818" gradientUnits="userSpaceOnUse">
<stop stop-color="#08021E"/>
<stop offset="1" stop-color="#1F0777"/>
</linearGradient>
</defs>
</svg>
